html/dist/img/svg/phone_icon.svg

<svg width="9" height="16" viewBox="0 0 9 16" fill="none" xmlns="http://www.w3.org/2000/svg">
<path d="M3.1376 0.799805H5.75191C5.89621 0.799805 6.01324 0.91918 6.01324 1.06637C6.01324 1.21356 5.89621 1.33293 5.75191 1.33293H3.1376C2.9933 1.33293 2.87626 1.21356 2.87626 1.06637C2.87595 0.91918 2.9933 0.799805 3.1376 0.799805Z" fill="white"/>
<path d="M1.30734 0.799805H1.56868C1.71298 0.799805 1.83002 0.91918 1.83002 1.06637C1.83002 1.21356 1.71298 1.33293 1.56868 1.33293H1.30734C1.16304 1.33293 1.046 1.21356 1.046 1.06637C1.046 0.91918 1.16304 0.799805 1.30734 0.799805Z" fill="white"/>
<path d="M4.12015 13.6001H4.76936C5.16704 13.6001 5.49057 13.9301 5.49057 14.3357V14.4645C5.49057 14.8701 5.16704 15.2001 4.76967 15.2001H4.12046C3.72278 15.2001 3.39925 14.8701 3.39925 14.4645V14.3357C3.39894 13.9301 3.72247 13.6001 4.12015 13.6001ZM3.92192 14.4645C3.92192 14.576 4.01077 14.6667 4.12015 14.6667H4.76936C4.87874 14.6667 4.96789 14.576 4.96789 14.4645V14.3357C4.96789 14.2238 4.87904 14.1332 4.76936 14.1332H4.12046C4.01077 14.1332 3.92192 14.2238 3.92192 14.3357V14.4645Z" fill="white"/>
<path d="M0.945166 0H7.94402C8.46517 0 8.88919 0.4325 8.88919 0.964063V15.0359C8.88919 15.5675 8.46517 16 7.94402 16H0.945166C0.424021 16 -3.8147e-06 15.5675 -3.8147e-06 15.0363V0.964063C0.000302315 0.4325 0.424327 0 0.945166 0ZM0.52298 15.0359C0.52298 15.2734 0.712321 15.4666 0.94486 15.4666H7.94402C8.17687 15.4666 8.36621 15.2731 8.36621 15.0363V0.964063C8.36621 0.726875 8.17687 0.533437 7.94402 0.533437H0.945166C0.71232 0.533437 0.52298 0.726875 0.52298 0.964063V15.0359Z" fill="white"/>
<path d="M0.261641 1.6001H8.62785C8.77216 1.6001 8.88919 1.71947 8.88919 1.86666V13.0667C8.88919 13.2138 8.77216 13.3332 8.62785 13.3332H0.261641C0.117337 13.3332 0.000301361 13.2138 0.000301361 13.0667V1.86666C0.000301361 1.71947 0.117337 1.6001 0.261641 1.6001ZM0.522979 12.8001H8.36621V2.13354H0.522979V12.8001Z" fill="white"/>
</svg>

<svg width="9" height="16" viewBox="0 0 9 16" fill="none" xmlns="http://www.w3.org/2000/svg"><path d="M3.138.8h2.614c.144 0 .261.12.261.266a.264.264 0 01-.261.267H3.138a.264.264 0 01-.262-.267c0-.147.117-.266.262-.266zM1.307.8h.262c.144 0 .261.12.261.266a.264.264 0 01-.261.267h-.262a.264.264 0 01-.261-.267c0-.147.117-.266.261-.266zM4.12 13.6h.65a.73.73 0 01.72.736v.128a.73.73 0 01-.72.736h-.65a.73.73 0 01-.72-.736v-.128a.728.728 0 01.72-.736zm-.198.864a.2.2 0 00.198.203h.65a.2.2 0 00.198-.203v-.128a.2.2 0 00-.199-.203H4.12a.2.2 0 00-.198.203v.128z" fill="#fff"/><path d="M.945 0h6.999c.521 0 .945.432.945.964v14.072a.956.956 0 01-.945.964H.945A.956.956 0 010 15.036V.964C0 .433.424 0 .945 0zM.523 15.036c0 .237.19.43.422.43h6.999a.427.427 0 00.422-.43V.964c0-.237-.19-.43-.422-.43H.945a.427.427 0 00-.422.43v14.072z" fill="#fff"/><path d="M.262 1.6h8.366c.144 0 .261.12.261.267v11.2a.264.264 0 01-.261.266H.262A.264.264 0 010 13.067v-11.2C0 1.719.117 1.6.262 1.6zm.261 11.2h7.843V2.134H.523V12.8z" fill="#fff"/></svg>
